svgs/regular/trash-can-plus.svg

<svg xmlns="http://www.w3.org/2000/svg" viewBox="0 0 448 512"><!--! Font Awesome Pro 6.6.0 by @fontawesome - https://fontawesome.com License - https://fontawesome.com/license (Commercial License) Copyright 2024 Fonticons, Inc. --><path d="M170.5 51.6L151.5 80l145 0-19-28.4c-1.5-2.2-4-3.6-6.7-3.6l-93.7 0c-2.7 0-5.2 1.3-6.7 3.6zm147-26.6L354.2 80 368 80l48 0 8 0c13.3 0 24 10.7 24 24s-10.7 24-24 24l-8 0 0 304c0 44.2-35.8 80-80 80l-224 0c-44.2 0-80-35.8-80-80l0-304-8 0c-13.3 0-24-10.7-24-24S10.7 80 24 80l8 0 48 0 13.8 0 36.7-55.1C140.9 9.4 158.4 0 177.1 0l93.7 0c18.7 0 36.2 9.4 46.6 24.9zM80 128l0 304c0 17.7 14.3 32 32 32l224 0c17.7 0 32-14.3 32-32l0-304L80 128zM200 376l0-64-64 0c-13.3 0-24-10.7-24-24s10.7-24 24-24l64 0 0-64c0-13.3 10.7-24 24-24s24 10.7 24 24l0 64 64 0c13.3 0 24 10.7 24 24s-10.7 24-24 24l-64 0 0 64c0 13.3-10.7 24-24 24s-24-10.7-24-24z"/></svg>

<svg xmlns="http://www.w3.org/2000/svg" viewBox="0 0 448 512"><!--! Font Awesome Pro 6.4.0 by @fontawesome - https://fontawesome.com License - https://fontawesome.com/license (Commercial License) Copyright 2023 Fonticons, Inc. --><path d="M170.5 51.6L151.5 80h145l-19-28.4c-1.5-2.2-4-3.6-6.7-3.6H177.1c-2.7 0-5.2 1.3-6.7 3.6zm147-26.6L354.2 80H368h48 8c13.3 0 24 10.7 24 24s-10.7 24-24 24h-8V432c0 44.2-35.8 80-80 80H112c-44.2 0-80-35.8-80-80V128H24c-13.3 0-24-10.7-24-24S10.7 80 24 80h8H80 93.8l36.7-55.1C140.9 9.4 158.4 0 177.1 0h93.7c18.7 0 36.2 9.4 46.6 24.9zM80 128V432c0 17.7 14.3 32 32 32H336c17.7 0 32-14.3 32-32V128H80zM200 376V312H136c-13.3 0-24-10.7-24-24s10.7-24 24-24h64V200c0-13.3 10.7-24 24-24s24 10.7 24 24v64h64c13.3 0 24 10.7 24 24s-10.7 24-24 24H248v64c0 13.3-10.7 24-24 24s-24-10.7-24-24z"/></svg>
